X:1
T:Title
%%score { ( 1 3 ) | ( 2 4 ) }
L:1/8
M:2/2
K:F
V:1 treble nm="Grand Piano"
V:3 treble 
V:2 bass 
V:4 bass 
V:1
 z4[Q:1/4=112] F4 | F4 F2 F2 | F4 [CEG]4 | [CFA]8 | [CEG]2 [B,EG]2 [A,F]4 | [GB]4 z4 | [EG]8 | %7
 [EG]4 [EG]2 [EG]2 | [EG]8 | [EG]4 G2 A2 | B4 [EG]4 | [FA]4 [DG]2 [DF]2 | F4 E4 | F8 | F2 F4 F2 | %15
 F8 | F4 [EG]2 [EG]2 | [FA]8 | [EG]4 F4 | [GB]2 [GB]2 [FA]4 | [FA]3 [EG] [EG]2 [EG]2 | G2 G2 A4 | %22
 B4 [EG]4 | [FA]4 [DG]2 [DF]2 | F4 E4 |[M:3/4] F6 |[M:1/4] F2 |[M:4/4] F2 F2 F4 | F2 F2 [CEG]4 | %29
 [CFA]2 [CFA]6 | [B,EG]4 [A,F]4 | [GB]2 [GB]2 [FA]2 [FA]2 | [FA]2 [EG]4 [EG]2 | [EG]4 [EG]2 [EG]2 | %34
 [EG]2 [EG]2 z2 [EG]2 | G2 G2 A2 A2 |[M:9/8] B2 B- B z z z .[EG]2 |[M:4/4] z4 G2 z2 | F4 E4 | %39
[M:8/4] [A,CF]8 z8 |[M:4/4] [B,DF]8 | [F,A,CF]8 |] %42
V:2
 z4 [F,A,C]4 | [F,A,C]4 [F,A,C]2 [F,A,C]2 | [D,A,D]4 C,4 | F,8 | C,2 C,2 D,4 | .[E,G,]4 [F,CF]4 | %6
 [C,C]8 | [C,C]4 [C,C]2 [C,C]2 | [C,C]8 | [C,C]4[K:treble] [B,D]2 [A,C^F]2 | %10
 [G,DG]4[K:bass] [C,C]4 | [F,C]4 [B,,B,]2 [B,,B,]2 | [C,A,C]4 [C,G,C]4 | [F,A,C]8 | %14
 [F,A,C]2 [F,A,C]4 [F,A,C]2 | [F,A,C]8 | [D,A,D]4 [C,C]2 [C,C]2 | [F,C]8 | [C,B,]4 [D,A,]4 | %19
 [E,G,]2 [E,C]2 [F,C]4 | [C,C]3 [C,C] [C,C]2 [C,C]2 | [B,D]2 [B,D]2 [A,C^F]4 | %22
 [G,DG]4[K:bass] [C,C]4 | [F,C]4 [B,,B,]2 [B,,B,]2 | A,4 z4 |[M:3/4] [F,A,C]6 |[M:1/4] [F,A,C]2 | %27
[M:4/4] [F,A,C]2 [F,A,C]2 [F,A,C]4 | [D,A,D]2 [D,A,D]2 C,4 | F,2 F,6 | C,4 D,4 | %31
 [E,G,]2 [E,C]2 [F,C]2 [F,C]2 | [C,C]2 [C,C]4 [C,C]2 | [C,C]4 [C,C]2 [C,C]2 | %34
 [C,C]2 [C,C]2 z2 [C,C]2 | [B,D]2 [B,D]2 [A,C^F]2 [A,CF]2 | %36
[M:9/8] [G,DG]2 [G,DG]- [G,DG] z z z[K:bass] [C,C]2 |[M:4/4] [F,C]2 [F,C]2 [B,,B,]4 | A,4 z4 | %39
[M:8/4] F,8 z8 |[M:4/4] B,,8 | F,,8 |] %42
V:3
 x8 | x8 | x8 | x8 | x8 | z2 C2 A4 | x8 | x8 | x8 | x8 | x8 | x8 | x8 | x8 | x8 | x8 | x8 | x8 | %18
 x8 | x8 | x8 | x8 | x8 | x8 | x8 |[M:3/4] x6 |[M:1/4] x2 |[M:4/4] x8 | x8 | x8 | x8 | x8 | x8 | %33
 x8 | x8 | x8 |[M:9/8] x9 |[M:4/4] .[FA]2 .[FA]2 D2- [DF]2 | x8 |[M:8/4] x16 |[M:4/4] x8 | x8 |] %42
V:4
 x8 | x8 | x8 | x8 | x8 | x8 | x8 | x8 | x8 | x4[K:treble] x4 | x4[K:bass] x4 | x8 | x8 | x8 | x8 | %15
 x8 | x8 | x8 | x8 | x8 | x8 | x8 | x4[K:bass] x4 | x8 | [C,C]4- [C,G,C]4 |[M:3/4] x6 |[M:1/4] x2 | %27
[M:4/4] x8 | x8 | x8 | x8 | x8 | x8 | x8 | x8 | x8 |[M:9/8] x7[K:bass] x2 |[M:4/4] x8 | %38
 [C,C]4- [C,G,C]4 |[M:8/4] x16 |[M:4/4] x8 | x8 |] %42

